X: 31146
T: Paddy Fahey's
R: reel
M: 4/4
K: Gmajor
GABc dBBB|dGBd gfdc|Bcde f2eg|faga fdcA|
BGGG D2GB|dGBd c2Bc|dggg dgag|1 fdcA G3D:|2 fdcA G2Bd||
|:g2 dc BdGB|DGBd gfde|f2eg faga|fdAd fgaf|
g2dc BdGB|DGBd gfde|f2eg faga|fdcA G4:|

